!!!COM: Gustav Mahler
!!!CNT: Deutsch
!!!TXO: Deutsch
!!!OTL: "Um schlimme Kinder artig zu machen"
!!!LYR: Des Knaben Wunderhorn
!!!OPR: Des Knaben Wunderhorn, Part 1 
!!!ENC: O'Neal Douglas
!!!YOR: CD Sheet Music: Late Romantic German Lieder
!!!YOR: CD Sheet Music, LLC, 2001
!!!ODT: 1890/
!!NB: Vocal melody and text encoded.
**kern	**text
*staff1	*staff1
*clefG2	*
*k[f#c#]	*
*M4/4	*
*MM112	*
8r	.
=1	=1
1r	.
=2	=2
1r	.
=3	=3
2r	.
4r	.
8r	.
{8A	{Es
=4	=4
8A	kam
8d	ein
8e	Herr
8f#	zum
8.g	Schlo2-
16a	-sse-
8g	-li
8f#	auf
=5	=5
8e	ei-
8d#	-nem
8e	scho2-
8A	-nen
4a	Ro2ss-
8f#}	-li,}
{8dd	{ku-
=6	=6
4a	-ku-
8f#	-kuk,
8dd	ku-
4a	-ku-
8f#}	-kuk!}
{8a	{Da
=7	=7
8a	lugt
8a	die
8b	Frau
8cc#	zum
8.dd	Fen-
16ee	-ster
8dd	aus
8cc#	und
=8	=8
8b	sagt:
8a#	"der
8b	Mann
8e	ist
8.ee	nicht
16ff#	zu
8ee}	Haus}
{8dd	{und
=9	=9
4a	nie-
8f#	-mand,
8dd	und
4a	nie-
8f#	-mand,
8dd	und
=10	=10
8a	nie-
8f#	-mand
8g	helm
8e	als
(16f#	mei-
16e)	|
(16f#	-ne
16g)	|
8a}	Kind';}
{8dd	{und's
=11	=11
4a	Ma2d-
8f#	-chen,
8dd	und's
4a	Ma2d-
8f#	-chen
8dd	ist
=12	=12
8a	auf
8f#	der
8g	Wa2-
8A	-sche-
4d}	-wind!"}
8r	.
{8f#	{Der
=13	=13
8d	Herr
8f#	auf
8b	sei-
8cc#	-nem
8.dd	Ro2-
16ee	-sse-
8dd	-li
8cc#	sagt
=14	=14
8b	zu
8a#	der
8b	Frau
8g	im
8.f#	Schlo2-
16g	-sse-
8f#}	-li:}
{8e	{Ku-
=15	=15
4d	-ku-
8B	-kuk,
8B	ku-
4d	-ku-
8B}	-kuk!}
{8d	{"Sind's
=16	=16
8e	gu-
8e	-te
8f#	Kind',
8g	sind's
8.a	bo2-
16b	-se
8a	Kind'?
8g	Ach,
=17	=17
8f#	lie-
8f#	-be
8g	Frau,
8a	ach
8.b	sagt
16cc#	gesch-
8b}	-wind",}
{8dd	{ku-
=18	=18
4a	-ku-
8f#	-kuk,
8ff#	ku-
4a	-ku-
8f#}	-kuk!}
8r	.
=19	=19
1r	.
=20	=20
1r	.
=21	=21
1r	.
=22	=22
2r	.
4r	.
8r	.
{8A	{"In
=23	=23
8A	mei-
8d	-ner
8e	Tasch'
8f#	fu2r
8.g	folg-
16a	-sam
8g	Kind'
8f#	da
=24	=24
8e	hab'
8d#	ich
8e	man-
8A	-che
8.a	An-
16g	-ge-
8f#}	-bind",}
{8dd	{ku-
=25	=25
4a	-ku-
8f#	-kuk,
8dd	ku-
4a	-ku-
8f#}	-kuk!}
{8a	{Die
=26	=26
8a	Frau,
8a	die
8b	sagt:
8cc#	"sehr
8.dd	bo2-
16ee	-se
8dd	Kind'
8cc#	Sie
=27	=27
8b	fol-
8b	-gen
8cc#	Mutt-
8dd	-ern
8.ee	nicht
16ff#	gesch-
8ee}	-wind,}
{8dd	{sind
=28	=28
4a	bo2-
8f#	-se,
8dd	sind
4a	bo2-
8f#	-se!"
8dd	Die
=29	=29
8a	Frau,
8f#	die
8g	sagt:
8e	"sind
(16f#	bo2-
16e)	|
(16f#	-se
16g)	|
8a}	Kind'!}
{8dd	{Sie
=30	=30
4a	fol-
8f#	-gen,
8dd	sie
4a	fol-
8f#	-gen
8dd	der
=31	=31
8a	Mut-
8f#	-ter
8g	nicht
8A	gesch-
4d}	-wind!"}
8r	.
{8f#	{Da
=32	=32
8d	sagt
8f#	der
8b	Herr:
8cc#	"so
8.dd	reit'-
16ee	-ich
8dd	heim,
8cc#	der-
=33	=33
8b	-glei-
8a#	-chen
8b	Kin-
8g	-der
8.f#	brauch'
16g	ich
8f#}	kein'!"}
{8e	{Ku-
=34	=34
4d	-ku-
8B	-kuk,
8B	ku-
4d	-ku-
8B}	-kuk!}
{8d	{Und
=35	=35
8e	reit'
8e	auf
8f#	sei-
8g	-nem
8.a	Ro2-
16b	-sse-
8a	-li
8g	weit,
=36	=36
8f#	weit
8f#	ent-
8g	-weg
8a	vom
8.b	Schlo2-
16cc#	-sse-
8b}	-li!}
{8dd	{Ku-
=37	=37
4a	-ku-
8f#	-kuk,
8ff#	ku-
4a	-ku-
8f#}	-kuk!}
8r	.
=38	=38
1r	.
=39	=39
1r	.
=40	=40
1r	.
=41	=41
1r	.
==	==
*-	*-
